src/img/Union6.svg

<svg width="37.549805" height="60.327148" viewBox="0 0 37.5498 60.3271" fill="none" xmlns="http://www.w3.org/2000/svg" xmlns:xlink="http://www.w3.org/1999/xlink">
	<desc>
			Created with Pixso.
	</desc>
	<defs/>
	<path id="Union" d="M19.3447 5.52734C19.2061 5.66406 19.0195 5.74023 18.8247 5.74023C18.6323 5.74023 18.4478 5.66504 18.311 5.5293C18.1743 5.39453 18.0962 5.21094 18.0938 5.01855L18.0938 0.818359C18.083 0.714844 18.0938 0.610352 18.1255 0.511719C18.1572 0.413086 18.21 0.322266 18.2793 0.245117C18.3486 0.167969 18.4331 0.106445 18.5278 0.0644531C18.6226 0.0214844 18.7251 0 18.8291 0C18.9326 0 19.0352 0.0214844 19.1299 0.0644531C19.2246 0.106445 19.3096 0.167969 19.3789 0.245117C19.4482 0.322266 19.5005 0.413086 19.5322 0.511719C19.5645 0.610352 19.5752 0.714844 19.564 0.818359L19.564 5.00977C19.562 5.2041 19.4829 5.39062 19.3447 5.52734ZM13.6421 6.74023C13.6982 6.87109 13.792 6.9834 13.9116 7.06055C14.0312 7.13867 14.1714 7.17871 14.314 7.17773C14.4033 7.17285 14.4917 7.15332 14.5742 7.11816C14.6621 7.0791 14.7412 7.02344 14.8071 6.9541C14.8735 6.88379 14.9253 6.80176 14.9595 6.71191C14.9937 6.62207 15.0103 6.52637 15.0073 6.43066C15.0049 6.33496 14.9834 6.24023 14.9438 6.15234L13.2637 2.33887C13.186 2.16016 13.04 2.02051 12.8589 1.94922C12.6777 1.87891 12.4761 1.88281 12.2979 1.96094C12.1196 2.03906 11.9795 2.18457 11.9087 2.36523C11.8379 2.54688 11.8418 2.74805 11.9199 2.92676L13.6421 6.74023ZM22.9746 7.11816C23.0679 7.15723 23.168 7.17773 23.2686 7.17773C23.4116 7.17871 23.5513 7.13867 23.6709 7.06055C23.7905 6.9834 23.8843 6.87109 23.9409 6.74023L25.6211 2.92676C25.6987 2.74805 25.7031 2.54688 25.6318 2.36523C25.561 2.18457 25.4214 2.03906 25.2427 1.96094C25.0645 1.88281 24.8628 1.87891 24.6816 1.94922C24.5005 2.02051 24.355 2.16016 24.2769 2.33887L22.5967 6.15234C22.5576 6.24023 22.5366 6.33594 22.5347 6.43164C22.5327 6.52832 22.5493 6.62402 22.5845 6.71387C22.6196 6.80371 22.6724 6.88574 22.7393 6.95508C22.8062 7.02441 22.8862 7.08008 22.9746 7.11816ZM34.3745 26.75L31.7871 26.75L31.7871 22.1465C31.7886 18.9482 30.6113 15.8623 28.4805 13.4775C26.3496 11.0918 23.415 9.57617 20.2368 9.21875C20.1157 9.20703 19.9941 9.22461 19.8813 9.26953C19.769 9.31543 19.6689 9.38672 19.5898 9.47949C19.5137 9.57324 19.4614 9.68359 19.438 9.80273C19.4146 9.9209 19.4204 10.0439 19.4556 10.1592L20.2114 12.6797L20.2114 14.3594C20.2114 14.5195 20.2637 14.6758 20.3608 14.8037C20.458 14.9307 20.5942 15.0225 20.749 15.0654C22.2949 15.4961 23.6582 16.4199 24.6304 17.6973C25.6021 18.9736 26.1304 20.5332 26.1338 22.1387L26.1338 26.7422L20.9507 26.7422C20.7554 26.7441 20.5684 26.8223 20.4302 26.9609C20.292 27.0986 20.2139 27.2861 20.2114 27.4814L20.2114 34.4199L18.4053 36.5117C18.3408 36.5859 18.2915 36.6719 18.2612 36.7656C18.2305 36.8594 18.2192 36.958 18.228 37.0566C18.2363 37.1543 18.2646 37.25 18.311 37.3369C18.3574 37.4238 18.4209 37.5 18.4976 37.5615L22.8994 41.1406L19.9341 45.5254C19.8789 45.6084 19.8403 45.7012 19.8218 45.7988C19.8032 45.8965 19.8047 45.9971 19.8257 46.0947C19.8472 46.1914 19.8877 46.2842 19.9453 46.3652C20.0029 46.4463 20.0762 46.5146 20.1611 46.5674L24.0337 48.9355L20.4551 53.5811C20.3569 53.709 20.3037 53.8652 20.3037 54.0264L20.3037 58.2861C20.3037 58.4795 20.3809 58.665 20.5181 58.8027C20.6548 58.9395 20.8408 59.0166 21.0347 59.0166L34.3745 59.0166C35.2163 59.0146 36.0225 58.6787 36.6177 58.084C37.2124 57.4893 37.5479 56.6826 37.5498 55.8408L37.5498 29.9258C37.5479 29.084 37.2124 28.2783 36.6177 27.6826C36.0225 27.0879 35.2163 26.7529 34.3745 26.75ZM15.0874 47.0879L18.7749 49.3389C18.9341 49.4473 19.0454 49.6133 19.0859 49.8008C19.1182 50.0049 19.0703 50.2129 18.9517 50.3809L17.1958 52.7246L17.1958 59.5879C17.1968 59.6846 17.1787 59.7803 17.1426 59.8701C17.1064 59.96 17.0527 60.041 16.9849 60.1104C16.9165 60.1787 16.8359 60.2334 16.7466 60.2705C16.6572 60.3076 16.5615 60.3271 16.4648 60.3271L3.17529 60.3271C2.33398 60.3252 1.52734 59.9893 0.932617 59.3945C0.337402 58.7998 0.00244141 57.9932 0 57.1514L0 31.2783C0.00244141 30.4365 0.337402 29.6299 0.932617 29.0352C1.52734 28.4404 2.33398 28.1055 3.17529 28.1025L5.81299 28.1025L5.81299 23.499C5.81494 20.6113 6.77734 17.8066 8.54932 15.5264C10.3213 13.2471 12.8018 11.6211 15.5996 10.9072C15.772 10.8721 15.9507 10.8984 16.1045 10.9834C16.2588 11.0684 16.3774 11.2051 16.4399 11.3691L17.0527 13.0488C17.0698 13.1299 17.0698 13.2129 17.0527 13.293L17.0527 15.7705C17.0537 15.9268 17.0059 16.0791 16.915 16.2051C16.8247 16.332 16.6963 16.4268 16.5488 16.4766C15.0884 16.9492 13.811 17.8652 12.8945 19.0977C11.9517 20.3701 11.4502 21.916 11.4668 23.499L11.4668 28.0273L16.3643 28.0273C16.4609 28.0273 16.5566 28.0459 16.6455 28.084C16.7349 28.1211 16.8159 28.1758 16.8838 28.2441C16.9517 28.3125 17.0054 28.3945 17.0415 28.4844C17.0781 28.5742 17.0962 28.6699 17.0947 28.7666L17.0947 32.9668C17.0962 33.1426 17.0337 33.3125 16.9185 33.4453L13.4321 37.4863L18.1787 41.3086C18.3232 41.4229 18.4189 41.5879 18.4473 41.7705C18.4751 41.9521 18.4331 42.1387 18.3296 42.291L15.0874 47.0879ZM21.6816 13.8301L21.6816 12.5791C21.6943 12.5098 21.6943 12.4385 21.6816 12.3691L21.2026 10.8984C23.7793 11.4492 26.0898 12.8662 27.7495 14.9121C29.4097 16.959 30.3184 19.5117 30.3257 22.1465L30.3257 26.75L27.5952 26.75L27.5952 22.1465C27.5918 20.3193 27.021 18.5371 25.9619 17.0479C24.9023 15.5576 23.4067 14.4336 21.6816 13.8301ZM15.272 12.4863C13.5293 13.0459 11.9453 14.0137 10.6519 15.3086C9.57373 16.3818 8.7207 17.6582 8.14209 19.0645C7.56396 20.4707 7.27197 21.9785 7.2832 23.499L7.2832 28.1025L10.0049 28.1025L10.0049 23.499C9.99951 21.7207 10.5312 19.9824 11.5312 18.5117C12.5312 17.041 13.9521 15.9072 15.6079 15.2588L15.6079 13.4189L15.272 12.4863ZM36.0801 55.833C36.0801 56.2783 35.9028 56.7061 35.5879 57.0205C35.2729 57.3359 34.8452 57.5127 34.3999 57.5127L21.7993 57.5127L21.7993 54.2363L25.6802 49.0957C25.7373 49.0166 25.7778 48.9258 25.7998 48.8301C25.8213 48.7354 25.8237 48.6357 25.8066 48.54C25.7891 48.4434 25.7529 48.3516 25.6992 48.2695C25.646 48.1875 25.5767 48.1172 25.4951 48.0625L21.5894 45.668L24.5039 41.3672C24.6074 41.2148 24.6494 41.0283 24.6216 40.8457C24.5933 40.6641 24.4976 40.499 24.353 40.3848L20.0181 36.8896L21.5137 35.1592C21.6255 35.0244 21.6875 34.8555 21.6899 34.6807L21.6899 28.2207L34.3745 28.2207C34.8203 28.2207 35.2476 28.3975 35.5625 28.7129C35.8779 29.0273 36.0547 29.4551 36.0547 29.9004L36.0801 55.833ZM15.7256 52.5059C15.7295 52.3457 15.7822 52.1904 15.877 52.0605L17.2881 50.1709L13.6426 47.9365C13.5571 47.8848 13.4834 47.8164 13.4258 47.7354C13.3682 47.6553 13.3276 47.5625 13.3062 47.4658C13.2661 47.2686 13.3052 47.0635 13.4155 46.8945L16.7085 42.0303L11.895 38.1494C11.7432 38.0234 11.6465 37.8428 11.6265 37.6455C11.6167 37.5479 11.6274 37.4482 11.6577 37.3545C11.6885 37.2607 11.7373 37.1738 11.8027 37.0996L15.6079 32.7402L15.6079 29.5557L3.17529 29.5557C2.72998 29.5557 2.30225 29.7334 1.9873 30.0479C1.67236 30.3633 1.49512 30.791 1.49512 31.2363L1.49512 57.2021C1.49512 57.6475 1.67236 58.0752 1.9873 58.3896C2.30225 58.7051 2.72998 58.8818 3.17529 58.8818L15.7256 58.8818L15.7256 52.5059Z" fill="#FFFFFF" fill-opacity="1.000000" fill-rule="evenodd"/>
</svg>

<svg width="37.55" height="60.327" fill="none" xmlns="http://www.w3.org/2000/svg"><path d="M19.345 5.527a.74.74 0 0 1-1.034.002.73.73 0 0 1-.217-.51v-4.2a.749.749 0 0 1 .185-.574.734.734 0 0 1 .55-.245.735.735 0 0 1 .735.818V5.01a.74.74 0 0 1-.22.517ZM13.642 6.74a.718.718 0 0 0 .672.438.73.73 0 0 0 .63-1.025l-1.68-3.814a.734.734 0 1 0-1.344.588l1.722 3.813Zm9.333.378c.093.04.193.06.294.06a.725.725 0 0 0 .672-.438l1.68-3.813a.734.734 0 0 0-1.344-.588l-1.68 3.813a.725.725 0 0 0-.013.562.73.73 0 0 0 .39.404Zm11.4 19.632h-2.588v-4.604A13.001 13.001 0 0 0 20.237 9.22a.762.762 0 0 0-.647.26.738.738 0 0 0-.134.68l.755 2.52v1.68a.735.735 0 0 0 .538.706 7.36 7.36 0 0 1 5.385 7.074v4.603H20.95a.745.745 0 0 0-.74.74v6.938l-1.806 2.092a.729.729 0 0 0 .093 1.05l4.401 3.579-2.965 4.384a.745.745 0 0 0-.108.57.748.748 0 0 0 .335.472l3.873 2.368-3.579 4.646a.73.73 0 0 0-.151.445v4.26a.732.732 0 0 0 .73.73h13.34a3.185 3.185 0 0 0 3.176-3.175V29.926a3.185 3.185 0 0 0-3.175-3.176ZM15.086 47.088l3.688 2.25c.16.11.27.275.31.463a.79.79 0 0 1-.133.58l-1.756 2.344v6.863a.736.736 0 0 1-.45.682.735.735 0 0 1-.281.057H3.175A3.183 3.183 0 0 1 0 57.151V31.278a3.183 3.183 0 0 1 3.175-3.175h2.638v-4.604A13.006 13.006 0 0 1 15.6 10.907a.738.738 0 0 1 .84.462l.613 1.68a.588.588 0 0 1 0 .244v2.478a.734.734 0 0 1-.504.706 7.39 7.39 0 0 0-3.654 2.62 7.266 7.266 0 0 0-1.428 4.402v4.528h4.897a.732.732 0 0 1 .73.74v4.2a.72.72 0 0 1-.175.478l-3.487 4.041 4.747 3.823a.732.732 0 0 1 .15.982l-3.242 4.797Zm6.595-33.258v-1.25a.584.584 0 0 0 0-.21l-.48-1.472a11.536 11.536 0 0 1 9.124 11.248v4.604h-2.73v-4.604a8.827 8.827 0 0 0-5.914-8.316Zm-6.41-1.344a11.5 11.5 0 0 0-4.62 2.823 11.441 11.441 0 0 0-3.369 8.19v4.604h2.722v-4.604a8.821 8.821 0 0 1 5.603-8.24v-1.84l-.336-.933ZM36.08 55.833a1.68 1.68 0 0 1-1.68 1.68H21.8v-3.277l3.88-5.14a.736.736 0 0 0 .02-.826.722.722 0 0 0-.205-.208l-3.906-2.394 2.915-4.3a.732.732 0 0 0-.151-.983l-4.335-3.495 1.496-1.73a.766.766 0 0 0 .176-.48v-6.46h12.684a1.678 1.678 0 0 1 1.68 1.68l.026 25.933Zm-20.354-3.327a.788.788 0 0 1 .151-.446l1.411-1.89-3.645-2.233a.728.728 0 0 1-.337-.471.766.766 0 0 1 .11-.572l3.293-4.864-4.814-3.88a.753.753 0 0 1-.268-.505.716.716 0 0 1 .176-.545l3.805-4.36v-3.184H3.175a1.683 1.683 0 0 0-1.68 1.68v25.966a1.679 1.679 0 0 0 1.68 1.68h12.55v-6.376Z" fill="#FFF" fill-rule="evenodd"/></svg>
